X: 8714
T: Crónán Na Máthar
R: waltz
M: 3/4
K: Dmajor
|:a>f|d2 (3FAc ed|B2 A/d/c/B/ A2|{^d}de f2 g2|_a =a>f d2-|
d2 (3FAc ed|{G}B2 A/d/c/B/ HAd|{e}f2 e2 Hd2|e<=a _af e2|
A/c/e A/c/e ff/e/d/|{G}B2 BA _A>B|d2 Tfe AHc|
_a =a>f d2-|d2 (3FAc e<d|{A}B2 A/d/c/B/ HAd>e|f2 e2 Hd2:|

